resources/icons/16px/git-merge.svg

<svg xmlns="http://www.w3.org/2000/svg" viewBox="0 0 16 16">
  <path d="M12 6c-1.3 0-2.4.84-2.82 2H9c-1.62 0-3-.96-3.63-2.34C6.33 5.16 7 4.16 7 3c0-1.66-1.34-3-3-3S1 1.34 1 3c0 1.3.84 2.4 2 2.81v4.37C1.84 10.6 1 11.7 1 13c0 1.66 1.34 3 3 3s3-1.34 3-3c0-1.3-.84-2.4-2-2.82V8.43A5.9 5.9 0 0 0 9 10h.18A2.996 2.996 0 0 0 15 9c0-1.66-1.34-3-3-3m-8 8c-.55 0-1-.45-1-1s.45-1 1-1 1 .45 1 1-.45 1-1 1M4 4c-.55 0-1-.45-1-1s.45-1 1-1 1 .45 1 1-.45 1-1 1m8 6c-.55 0-1-.45-1-1s.45-1 1-1 1 .45 1 1-.45 1-1 1"/>
</svg>

<?xml version="1.0" encoding="utf-8"?>
<!-- Generator: Adobe Illustrator 18.0.0, SVG Export Plug-In . SVG Version: 6.00 Build 0)  -->
<svg version="1.1" id="Layer_1" xmlns="http://www.w3.org/2000/svg" xmlns:xlink="http://www.w3.org/1999/xlink" x="0px" y="0px"
	 viewBox="0 0 16 16" enable-background="new 0 0 16 16" xml:space="preserve">
<g id="GIT_MERGE_1_">
	<g>
		<path fill-rule="evenodd" clip-rule="evenodd" d="M12,6c-1.3,0-2.4,0.84-2.82,2H9C7.38,8,6,7.04,5.37,5.66C6.33,5.16,7,4.16,7,3
			c0-1.66-1.34-3-3-3S1,1.34,1,3c0,1.3,0.84,2.4,2,2.81v4.37C1.84,10.6,1,11.7,1,13c0,1.66,1.34,3,3,3s3-1.34,3-3
			c0-1.3-0.84-2.4-2-2.82V8.43C6.06,9.4,7.45,10,9,10h0.18c0.41,1.16,1.51,2,2.82,2c1.66,0,3-1.34,3-3S13.66,6,12,6z M4,14
			c-0.55,0-1-0.45-1-1c0-0.55,0.45-1,1-1s1,0.45,1,1C5,13.55,4.55,14,4,14z M4,4C3.45,4,3,3.55,3,3c0-0.55,0.45-1,1-1s1,0.45,1,1
			C5,3.55,4.55,4,4,4z M12,10c-0.55,0-1-0.45-1-1c0-0.55,0.45-1,1-1s1,0.45,1,1C13,9.55,12.55,10,12,10z"/>
	</g>
</g>
</svg>
